;FLAVOR:Marlin
;TIME:2071
;Filament used: 2.51978m
;Layer height: 0.15
;MINX:88.282
;MINY:97.279
;MINZ:0.25
;MAXX:152.94
;MAXY:131.138
;MAXZ:12.85
;Generated with Cura_SteamEngine 5.0.0
M140 S85
M105
M190 S85
M104 S238
M105
M109 S238
M82 ;absolute extrusion mode
; Ender 3 Custom Start G-code
G92 E0 ; Reset Extruder
G28 ; Home all axes
G1 Z2.0 F3000 ; Move Z Axis up little to prevent scratching of Heat Bed
G1 X0.1 Y20 Z0.3 F5000.0 ; Move to start position
G1 X0.1 Y200.0 Z0.3 F1500.0 E15 ; Draw the first line
G1 X0.4 Y200.0 Z0.3 F5000.0 ; Move to side a little
G1 X0.4 Y20 Z0.3 F1500.0 E30 ; Draw the second line
G92 E0 ; Reset Extruder
G1 Z2.0 F3000 ; Move Z Axis up little to prevent scratching of Heat Bed
G1 X5 Y20 Z0.3 F5000.0 ; Move over to prevent blob squish
M83 ;relative extrusion mode
G1 F2700 E-3.5
;LAYER_COUNT:85
;LAYER:0
M107
M204 S550
M205 X8 Y8
G0 F9000 X91.07 Y103.713 Z0.25
G0 X88.282 Y110.589
M204 S480
;TYPE:SKIRT
G1 F2700 E3.5
G1 F1200 X88.295 Y109.595 E0.07774
G1 X88.351 Y109.038 E0.04378
G1 X88.526 Y108.095 E0.075
G1 X88.67 Y107.572 E0.04242
G1 X89.013 Y106.649 E0.077
G1 X89.255 Y106.137 E0.04429
G1 X89.737 Y105.306 E0.07513
G1 X90.049 Y104.86 E0.04257
G1 X90.674 Y104.112 E0.07623
G1 X91.07 Y103.713 E0.04396
G1 X91.822 Y103.076 E0.07707
G1 X92.274 Y102.756 E0.04331
G1 X93.094 Y102.273 E0.07442
G1 X93.59 Y102.034 E0.04306
G1 X94.512 Y101.684 E0.07712
G1 X95.049 Y101.532 E0.04364
G1 X96.011 Y101.348 E0.07659
G1 X96.568 Y101.29 E0.04379
G1 X96.688 Y101.288 E0.00939
G1 X96.776 Y101.143 E0.01326
G1 X97.11 Y100.689 E0.04408
G1 X97.734 Y99.974 E0.07421
G1 X98.123 Y99.597 E0.04236
G1 X98.884 Y98.977 E0.07676
G1 X99.353 Y98.658 E0.04436
G1 X100.226 Y98.17 E0.07821
G1 X100.732 Y97.943 E0.04337
G1 X101.624 Y97.629 E0.07395
G1 X102.152 Y97.491 E0.04268
G1 X103.108 Y97.327 E0.07585
G1 X103.67 Y97.279 E0.04411
G1 X104.654 Y97.28 E0.07695
G1 X105.2 Y97.328 E0.04286
G1 X106.162 Y97.496 E0.07637
G1 X106.705 Y97.64 E0.04393
G1 X107.635 Y97.976 E0.07733
G1 X108.137 Y98.208 E0.04325
G1 X108.953 Y98.67 E0.07333
G1 X109.407 Y98.979 E0.04295
G1 X110.179 Y99.61 E0.07797
G1 X110.58 Y100.001 E0.0438
G1 X111.213 Y100.733 E0.07568
G1 X111.539 Y101.182 E0.04339
G1 X111.604 Y101.289 E0.00979
G1 X111.767 Y101.293 E0.01275
G1 X112.33 Y101.355 E0.04429
G1 X113.273 Y101.541 E0.07517
G1 X113.794 Y101.69 E0.04238
G1 X114.72 Y102.044 E0.07753
G1 X115.23 Y102.292 E0.04435
G1 X116.063 Y102.789 E0.07586
G1 X116.514 Y103.113 E0.04343
G1 X117.244 Y103.738 E0.07515
G1 X117.628 Y104.127 E0.04275
G1 X118.256 Y104.883 E0.07686
G1 X118.575 Y105.343 E0.04378
G1 X119.052 Y106.172 E0.0748
G1 X119.284 Y106.667 E0.04275
G1 X119.626 Y107.599 E0.07764
G1 X119.773 Y108.143 E0.04407
G1 X119.945 Y109.095 E0.07565
G1 X119.997 Y109.647 E0.04336
G1 X120.006 Y110.609 E0.07523
G1 X119.982 Y110.923 E0.02463
G1 X120.47 Y110.05 E0.07821
G1 X120.778 Y109.597 E0.04284
G1 X121.416 Y108.817 E0.0788
G1 X121.808 Y108.416 E0.04385
G1 X122.535 Y107.789 E0.07508
G1 X122.984 Y107.463 E0.04339
G1 X123.091 Y107.398 E0.00979
G1 X123.095 Y107.237 E0.01259
G1 X123.157 Y106.673 E0.04437
G1 X123.343 Y105.729 E0.07524
G1 X123.492 Y105.208 E0.04238
G1 X123.846 Y104.282 E0.07753
G1 X124.094 Y103.772 E0.04435
G1 X124.591 Y102.939 E0.07586
G1 X124.915 Y102.488 E0.04343
G1 X125.534 Y101.763 E0.07455
G1 X125.923 Y101.378 E0.0428
G1 X126.696 Y100.737 E0.07853
G1 X127.157 Y100.419 E0.0438
G1 X127.97 Y99.952 E0.07332
G1 X128.468 Y99.718 E0.04303
G1 X129.414 Y99.372 E0.07877
G1 X129.954 Y99.227 E0.04373
G1 X130.888 Y99.058 E0.07423
G1 X131.441 Y99.005 E0.04344
G1 X132.423 Y98.996 E0.0768
G1 X132.968 Y99.038 E0.04275
G1 X133.927 Y99.195 E0.07599
G1 X134.473 Y99.333 E0.04404
G1 X135.401 Y99.655 E0.07682
G1 X135.907 Y99.881 E0.04334
G1 X136.011 Y99.938 E0.00927
G1 X136.139 Y99.868 E0.01141
G1 X136.642 Y99.645 E0.04303
G1 X137.567 Y99.327 E0.07649
G1 X138.106 Y99.192 E0.04345
G1 X139.067 Y99.037 E0.07612
G1 X139.63 Y98.995 E0.04415
G1 X140.635 Y99.009 E0.0786
G1 X141.191 Y99.066 E0.04371
G1 X142.113 Y99.238 E0.07335
G1 X142.636 Y99.381 E0.0424
G1 X143.577 Y99.73 E0.07849
G1 X144.089 Y99.973 E0.04432
G1 X144.905 Y100.446 E0.07376
G1 X145.351 Y100.757 E0.04252
G1 X146.111 Y101.392 E0.07745
G1 X146.51 Y101.789 E0.04402
G1 X147.142 Y102.536 E0.07652
G1 X147.462 Y102.988 E0.04331
G1 X147.943 Y103.804 E0.07407
G1 X148.182 Y104.299 E0.04299
G1 X148.534 Y105.227 E0.07762
G1 X148.686 Y105.765 E0.04372
G1 X148.87 Y106.723 E0.07629
G1 X148.928 Y107.278 E0.04364
G1 X148.93 Y107.4 E0.00954
G1 X149.07 Y107.485 E0.01281
G1 X149.525 Y107.819 E0.04414
G1 X150.25 Y108.452 E0.07527
G1 X150.627 Y108.842 E0.04242
G1 X151.239 Y109.594 E0.07582
G1 X151.558 Y110.062 E0.04429
G1 X152.045 Y110.931 E0.0779
G1 X152.272 Y111.435 E0.04323
G1 X152.591 Y112.34 E0.07504
G1 X152.729 Y112.87 E0.04283
G1 X152.893 Y113.829 E0.07609
G1 X152.94 Y114.389 E0.04395
G1 X152.939 Y115.352 E0.07531
G1 X152.892 Y115.901 E0.04309
G1 X152.721 Y116.881 E0.0778
G1 X152.577 Y117.422 E0.04378
G1 X152.247 Y118.339 E0.07621
G1 X152.015 Y118.843 E0.04339
G1 X151.546 Y119.672 E0.07449
G1 X151.237 Y120.125 E0.04288
G1 X150.609 Y120.892 E0.07752
G1 X150.218 Y121.293 E0.0438
G1 X149.481 Y121.93 E0.07618
G1 X149.031 Y122.256 E0.04346
G1 X148.929 Y122.317 E0.00929
G1 X148.926 Y122.469 E0.01189
G1 X148.865 Y123.032 E0.04429
G1 X148.676 Y123.992 E0.07652
G1 X148.526 Y124.514 E0.04247
G1 X148.172 Y125.437 E0.07731
G1 X147.924 Y125.946 E0.04428
G1 X147.433 Y126.77 E0.07501
G1 X147.109 Y127.222 E0.04349
G1 X146.486 Y127.952 E0.07505
G1 X146.097 Y128.337 E0.0428
G1 X145.324 Y128.978 E0.07853
G1 X144.863 Y129.296 E0.0438
G1 X144.05 Y129.763 E0.07332
G1 X143.552 Y129.997 E0.04303
G1 X142.606 Y130.343 E0.07877
G1 X142.066 Y130.488 E0.04373
G1 X141.121 Y130.658 E0.07509
G1 X140.567 Y130.71 E0.04351
G1 X139.606 Y130.719 E0.07516
G1 X139.061 Y130.678 E0.04274
G1 X138.09 Y130.52 E0.07693
G1 X137.545 Y130.382 E0.04397
G1 X136.619 Y130.06 E0.07667
G1 X136.113 Y129.834 E0.04334
G1 X136.008 Y129.776 E0.00938
G1 X135.862 Y129.856 E0.01302
G1 X135.347 Y130.082 E0.04398
G1 X134.441 Y130.391 E0.07486
G1 X133.914 Y130.523 E0.04249
G1 X132.943 Y130.679 E0.07691
G1 X132.38 Y130.72 E0.04414
G1 X131.395 Y130.706 E0.07704
G1 X130.839 Y130.65 E0.0437
G1 X129.907 Y130.477 E0.07413
G1 X129.384 Y130.334 E0.0424
G1 X128.443 Y129.985 E0.07849
G1 X127.931 Y129.742 E0.04432
G1 X127.115 Y129.269 E0.07376
G1 X126.669 Y128.958 E0.04252
G1 X125.909 Y128.323 E0.07745
G1 X125.51 Y127.926 E0.04402
G1 X124.874 Y127.174 E0.07702
G1 X124.554 Y126.721 E0.04337
G1 X124.079 Y125.914 E0.07323
G1 X123.84 Y125.42 E0.04292
G1 X123.486 Y124.488 E0.07797
G1 X123.334 Y123.95 E0.04372
G1 X123.15 Y122.992 E0.07629
G1 X123.092 Y122.437 E0.04364
G1 X123.09 Y122.314 E0.00962
G1 X122.945 Y122.226 E0.01326
G1 X122.491 Y121.892 E0.04408
G1 X121.776 Y121.268 E0.07421
G1 X121.397 Y120.877 E0.04258
G1 X120.774 Y120.111 E0.07721
G1 X120.457 Y119.644 E0.04414
G1 X119.993 Y118.823 E0.07375
G1 X119.937 Y119.379 E0.0437
G1 X119.762 Y120.318 E0.0747
G1 X119.618 Y120.842 E0.0425
G1 X119.274 Y121.772 E0.07754
G1 X119.032 Y122.283 E0.04422
G1 X118.554 Y123.105 E0.07436
G1 X118.242 Y123.552 E0.04263
G1 X117.609 Y124.31 E0.07723
G1 X117.213 Y124.708 E0.04391
G1 X116.472 Y125.335 E0.07591
G1 X116.02 Y125.656 E0.04335
G1 X115.186 Y126.148 E0.07572
G1 X114.69 Y126.386 E0.04302
G1 X113.786 Y126.729 E0.07561
G1 X113.249 Y126.882 E0.04367
G1 X112.277 Y127.069 E0.07741
G1 X111.72 Y127.127 E0.04379
G1 X111.602 Y127.129 E0.00923
G1 X111.522 Y127.26 E0.012
G1 X111.189 Y127.715 E0.04409
G1 X110.551 Y128.447 E0.07594
G1 X110.16 Y128.825 E0.04253
G1 X109.404 Y129.44 E0.07621
G1 X108.935 Y129.759 E0.04436
G1 X108.062 Y130.247 E0.07821
G1 X107.556 Y130.474 E0.04337
G1 X106.664 Y130.788 E0.07395
G1 X106.136 Y130.926 E0.04268
G1 X105.17 Y131.091 E0.07664
G1 X104.608 Y131.138 E0.0441
G1 X103.644 Y131.137 E0.07539
G1 X103.098 Y131.09 E0.04286
G1 X102.126 Y130.921 E0.07715
G1 X101.583 Y130.777 E0.04393
G1 X100.653 Y130.441 E0.07733
G1 X100.151 Y130.209 E0.04325
G1 X99.335 Y129.747 E0.07333
G1 X98.881 Y129.438 E0.04295
G1 X98.103 Y128.802 E0.07858
G1 X97.702 Y128.41 E0.04385
G1 X97.067 Y127.673 E0.07608
G1 X96.741 Y127.222 E0.04352
G1 X96.684 Y127.128 E0.0086
G1 X96.52 Y127.124 E0.01283
G1 X95.958 Y127.062 E0.04422
G1 X95.009 Y126.874 E0.07566
G1 X94.487 Y126.724 E0.04247
G1 X93.576 Y126.376 E0.07626
G1 X93.066 Y126.129 E0.04431
G1 X92.219 Y125.623 E0.07716
G1 X91.768 Y125.298 E0.04347
G1 X91.049 Y124.684 E0.07394
G1 X90.665 Y124.296 E0.04269
G1 X90.029 Y123.529 E0.07792
G1 X89.71 Y123.068 E0.04384
G1 X89.236 Y122.245 E0.07427
G1 X89.003 Y121.748 E0.04293
G1 X88.66 Y120.811 E0.07803
G1 X88.514 Y120.269 E0.0439
G1 X88.343 Y119.323 E0.07518
G1 X88.291 Y118.773 E0.0432
G1 X88.283 Y117.8 E0.07609
G1 X88.325 Y117.252 E0.04298
G1 X88.481 Y116.296 E0.07575
G1 X88.618 Y115.752 E0.04387
G1 X88.941 Y114.819 E0.07721
G1 X89.168 Y114.311 E0.04351
G1 X89.225 Y114.207 E0.00927
G1 X89.156 Y114.081 E0.01123
G1 X88.932 Y113.576 E0.0432
G1 X88.612 Y112.645 E0.07699
G1 X88.478 Y112.108 E0.04328
G1 X88.324 Y111.152 E0.07573
G1 X88.282 Y110.589 E0.04415
M204 S550
G0 F9000 X89.04 Y110.533
M204 S480
G1 F1200 X89.051 Y109.671 E0.06742
G1 X89.107 Y109.114 E0.04378
G1 X89.259 Y108.297 E0.06499
G1 X89.403 Y107.774 E0.04242
G1 X89.7 Y106.974 E0.06673
G1 X89.942 Y106.462 E0.04429
G1 X90.36 Y105.741 E0.06517
G1 X90.672 Y105.295 E0.04257
G1 X91.214 Y104.647 E0.06606
G1 X91.61 Y104.248 E0.04396
G1 X92.262 Y103.696 E0.06681
G1 X92.714 Y103.376 E0.04331
G1 X93.424 Y102.958 E0.06443
G1 X93.92 Y102.719 E0.04306
G1 X94.719 Y102.416 E0.06683
G1 X95.256 Y102.264 E0.04364
G1 X96.089 Y102.104 E0.06633
G1 X96.646 Y102.046 E0.04379
G1 X97.117 Y102.037 E0.03684
G1 X97.388 Y101.594 E0.04061
G1 X97.722 Y101.14 E0.04408
G1 X98.263 Y100.52 E0.06435
G1 X98.652 Y100.143 E0.04236
G1 X99.312 Y99.605 E0.06659
G1 X99.781 Y99.286 E0.04436
G1 X100.537 Y98.864 E0.06771
G1 X101.043 Y98.637 E0.04337
G1 X101.816 Y98.365 E0.06408
G1 X102.344 Y98.227 E0.04268
G1 X103.173 Y98.084 E0.06579
G1 X103.735 Y98.036 E0.04411
G1 X104.588 Y98.037 E0.06671
G1 X105.134 Y98.085 E0.04286
G1 X105.967 Y98.231 E0.06614
G1 X106.51 Y98.375 E0.04393
G1 X107.316 Y98.666 E0.06701
G1 X107.818 Y98.898 E0.04325
G1 X108.526 Y99.298 E0.06359
G1 X108.98 Y99.607 E0.04295
G1 X109.649 Y100.154 E0.06758
G1 X110.05 Y100.545 E0.0438
G1 X110.598 Y101.18 E0.06559
G1 X110.924 Y101.629 E0.04339
G1 X111.171 Y102.037 E0.0373
G1 X111.684 Y102.049 E0.04013
G1 X112.247 Y102.111 E0.04429
G1 X113.064 Y102.271 E0.06511
G1 X113.585 Y102.42 E0.04238
G1 X114.387 Y102.727 E0.06716
G1 X114.897 Y102.975 E0.04435
G1 X115.619 Y103.406 E0.06576
G1 X116.07 Y103.73 E0.04343
G1 X116.704 Y104.272 E0.06523
G1 X117.088 Y104.661 E0.04275
G1 X117.631 Y105.316 E0.06654
G1 X117.95 Y105.776 E0.04378
G1 X118.364 Y106.495 E0.06488
G1 X118.596 Y106.99 E0.04275
G1 X118.892 Y107.797 E0.06722
G1 X119.039 Y108.341 E0.04407
G1 X119.188 Y109.167 E0.06564
G1 X119.24 Y109.719 E0.04336
G1 X119.248 Y110.552 E0.06515
G1 X119.207 Y111.098 E0.04282
G1 X119.07 Y111.941 E0.06679
G1 X118.932 Y112.486 E0.04397
G1 X118.656 Y113.281 E0.06581
G1 X118.43 Y113.789 E0.04348
G1 X118.198 Y114.208 E0.03745
G1 X118.448 Y114.666 E0.04081
G1 X118.673 Y115.18 E0.04388
G1 X118.938 Y115.954 E0.06398
G1 X119.071 Y116.482 E0.04258
G1 X119.208 Y117.33 E0.06718
G1 X119.249 Y117.893 E0.04414
G1 X119.237 Y118.747 E0.06679
G1 X119.181 Y119.303 E0.0437
G1 X119.029 Y120.117 E0.06476
G1 X118.885 Y120.641 E0.0425
G1 X118.587 Y121.446 E0.06713
G1 X118.345 Y121.957 E0.04422
G1 X117.931 Y122.67 E0.06448
G1 X117.619 Y123.117 E0.04263
G1 X117.07 Y123.774 E0.06696
G1 X116.674 Y124.172 E0.04391
G1 X116.032 Y124.716 E0.06581
G1 X115.58 Y125.037 E0.04335
G1 X114.857 Y125.463 E0.06563
G1 X114.361 Y125.701 E0.04302
G1 X113.578 Y125.998 E0.06549
G1 X113.041 Y126.151 E0.04367
G1 X112.199 Y126.313 E0.06705
G1 X111.642 Y126.371 E0.04379
G1 X111.171 Y126.38 E0.03684
G1 X110.908 Y126.812 E0.03955
G1 X110.575 Y127.267 E0.04409
G1 X110.023 Y127.901 E0.06574
G1 X109.632 Y128.279 E0.04253
G1 X108.976 Y128.812 E0.0661
G1 X108.507 Y129.131 E0.04436
G1 X107.751 Y129.553 E0.06771
G1 X107.245 Y129.78 E0.04337
G1 X106.472 Y130.052 E0.06408
G1 X105.944 Y130.19 E0.04268
G1 X105.107 Y130.334 E0.06642
G1 X104.545 Y130.381 E0.0441
G1 X103.709 Y130.38 E0.06538
G1 X103.163 Y130.333 E0.04286
G1 X102.321 Y130.186 E0.06684
G1 X101.778 Y130.042 E0.04393
G1 X100.972 Y129.751 E0.06701
G1 X100.47 Y129.519 E0.04325
G1 X99.762 Y129.119 E0.06359
G1 X99.308 Y128.81 E0.04295
G1 X98.635 Y128.259 E0.06802
G1 X98.234 Y127.867 E0.04385
G1 X97.683 Y127.228 E0.06598
G1 X97.357 Y126.777 E0.04352
G1 X97.118 Y126.38 E0.03624
G1 X96.603 Y126.368 E0.04029
G1 X96.041 Y126.306 E0.04422
G1 X95.219 Y126.144 E0.06552
G1 X94.697 Y125.994 E0.04247
G1 X93.908 Y125.692 E0.06607
G1 X93.398 Y125.445 E0.04431
G1 X92.663 Y125.007 E0.06691
G1 X92.212 Y124.682 E0.04347
G1 X91.589 Y124.149 E0.06412
G1 X91.205 Y123.761 E0.04269
G1 X90.654 Y123.097 E0.06748
G1 X90.335 Y122.636 E0.04384
G1 X89.924 Y121.922 E0.06443
G1 X89.691 Y121.425 E0.04293
G1 X89.394 Y120.613 E0.06762
G1 X89.248 Y120.071 E0.0439
G1 X89.1 Y119.251 E0.06516
G1 X89.048 Y118.701 E0.0432
G1 X89.04 Y117.858 E0.06593
G1 X89.082 Y117.31 E0.04298
G1 X89.218 Y116.482 E0.06562
G1 X89.355 Y115.938 E0.04387
G1 X89.635 Y115.129 E0.06695
G1 X89.862 Y114.621 E0.04351
G1 X90.09 Y114.209 E0.03682
G1 X89.85 Y113.773 E0.03892
G1 X89.626 Y113.268 E0.0432
G1 X89.349 Y112.461 E0.06672
G1 X89.215 Y111.924 E0.04328
G1 X89.082 Y111.096 E0.06558
G1 X89.04 Y110.533 E0.04415
M204 S550
G0 F9000 X89.798 Y110.476
M204 S480
G1 F1200 X89.807 Y109.747 E0.05701
G1 X89.863 Y109.19 E0.04378
G1 X89.992 Y108.498 E0.05505
G1 X90.136 Y107.975 E0.04242
G1 X90.387 Y107.299 E0.05639
G1 X90.629 Y106.787 E0.04429
G1 X90.983 Y106.177 E0.05515
G1 X91.295 Y105.731 E0.04257
G1 X91.753 Y105.182 E0.05591
G1 X92.149 Y104.783 E0.04396
G1 X92.701 Y104.316 E0.05654
G1 X93.153 Y103.996 E0.04331
G1 X93.754 Y103.642 E0.05455
G1 X94.25 Y103.403 E0.04306
G1 X94.926 Y103.147 E0.05653
G1 X95.463 Y102.995 E0.04364
G1 X96.168 Y102.859 E0.05615
G1 X96.725 Y102.801 E0.04379
G1 X97.443 Y102.789 E0.05616
G1 X97.556 Y102.797 E0.00886
G1 X97.622 Y102.664 E0.01161
G1 X98 Y102.044 E0.05679
G1 X98.334 Y101.59 E0.04408
G1 X98.792 Y101.065 E0.05448
G1 X99.181 Y100.688 E0.04236
G1 X99.739 Y100.234 E0.05626
G1 X100.208 Y99.915 E0.04436
G1 X100.848 Y99.557 E0.05735
G1 X101.354 Y99.33 E0.04337
G1 X102.008 Y99.1 E0.05422
G1 X102.536 Y98.962 E0.04268
G1 X103.237 Y98.841 E0.05563
G1 X103.799 Y98.793 E0.04411
G1 X104.521 Y98.794 E0.05646
G1 X105.067 Y98.842 E0.04286
G1 X105.772 Y98.966 E0.05598
G1 X106.315 Y99.11 E0.04393
G1 X106.998 Y99.356 E0.05677
G1 X107.5 Y99.588 E0.04325
G1 X108.098 Y99.926 E0.05372
G1 X108.552 Y100.235 E0.04295
G1 X109.118 Y100.698 E0.05719
G1 X109.519 Y101.089 E0.0438
G1 X109.983 Y101.626 E0.0555
G1 X110.309 Y102.075 E0.04339
G1 X110.678 Y102.686 E0.05582
G1 X110.733 Y102.797 E0.00969
G1 X110.876 Y102.788 E0.01121
G1 X111.601 Y102.804 E0.05671
G1 X112.164 Y102.866 E0.04429
G1 X112.855 Y103.002 E0.05507
G1 X113.376 Y103.151 E0.04238
G1 X114.055 Y103.411 E0.05686
G1 X114.565 Y103.659 E0.04435
G1 X115.176 Y104.023 E0.05562
G1 X115.627 Y104.347 E0.04343
G1 X116.163 Y104.805 E0.05513
G1 X116.547 Y105.194 E0.04275
G1 X117.007 Y105.749 E0.05637
G1 X117.326 Y106.209 E0.04378
G1 X117.676 Y106.817 E0.05486
G1 X117.908 Y107.312 E0.04275
G1 X118.158 Y107.996 E0.05695
G1 X118.305 Y108.54 E0.04407
G1 X118.432 Y109.238 E0.05548
